!!!OTL: Venus, du und dein Kind. / "Man spricht wenn Gott erfreut"
!!!ARE: Europa, Mitteleuropa, Deutschland
!!!SCT: A0219B
!!!TXL: @@GMH
!!!YEM: Copyright 1995, estate of Helmut Schaffrath.
**kern	**text
*M4/2	*
*met(c)	*
*clefC1	*
*k[b-]	*
*D:	*
{2r	.
2d	Man
=1	=1
2d	ſpricht:
2a	wen
2a	Gott
2g#	er-
=2	=2
1a	-frewt,
2r}	.
{2a	hat
=3	=3
2a	gmei-
2g	-nig-
2f	-lich
2g/	groß
=4	=4
1e	Leid,
2r}	.
{2e	doch
=5	=5
2f/	wird
2g	ſein
2a	Leid
2a	ver-
=6	=6
(2a	-keh-
2g#)	.
2a}	-ret,
{2e	ihm
=7	=7
2f	ew-
2g/	-ge
2a	Frewd
2a	ge-
=8	=8
1g	-weh-
1a	-ret.
=9	=9
2r}	.
{2a	Gott
2a	kann
2b-	dein
=10	=10
2cc	Leid
2a	wol
1g	ſtil-
=11	=11
2g}	-len,
{2g	und
2a	dich
2g	mit
=12	=12
2f	Frewd
2g/	er-
1e	-fül-
=13	=13
1d/ll}	-len.
==	==
!!!GTL: Liebeslieder
!!!AGN: Romanze, Ballade, Lied
!! Als geistliches Lied
!!!ONB: ESAC (Essen Associative Code) Database: ALTDEU
!!!AMT: simple quadruple
!!!AIN: vox
!!!EED: Helmut Schaffrath
!!!EEV: 1.0
!!@@COMMENT:"Mit geringer Umbildung wurde die Melodie dann zum geistlichenLied
!! „Man spricht wenn Gott erfreut" <Gesins,Gsgb. 1605) und wieder ein wenig abgeändertals Choral 
!! „Aus meinen lieben Gott" (3. H. Schein, Cantional 1027) verwendet"
!!@@END:
!!!RDF**kern: l = terminal long
!!!URL-scan: https://rosdok.uni-rostock.de/mcrviewer/recordIdentifier/rosdok_ppn738218359/iview2/phys_0375.iview2?x=-1816.6124862433817&y=1640.4781919666566&scale=0.262872707487861&rotation=0&layout=singlePageLayout
!!!ENC: Anna Maria Matuszewska
!!!EEV: 2024/08/03
*-	*-
